public/img/filter/salad.svg

<svg width="100" height="100" viewBox="0 0 100 100" fill="none" xmlns="http://www.w3.org/2000/svg">
<rect x="1" y="1" width="98" height="98" rx="14" stroke="#234cad" stroke-width="2"/>
<path d="M76.0835 49.4389H75.2239C75.1405 48.9348 75.0974 48.4594 75.1931 48.1069C75.3612 47.4878 75.9143 46.8314 76.4492 46.1967C77.2069 45.2977 77.9904 44.3681 77.9999 43.2341C78.0118 41.8068 77.0265 40.7447 76.1569 39.8077C75.685 39.299 75.2391 38.8185 75.0664 38.3977C74.8593 37.8929 74.7574 37.2111 74.6587 36.5517C74.4532 35.1771 74.2202 33.6192 72.9084 32.9465C71.5951 32.2742 70.1943 32.9951 68.9578 33.6314C68.3654 33.9364 67.7527 34.2516 67.223 34.3784C66.8276 34.4726 66.2394 34.4136 65.719 34.3507C65.2698 34.2963 64.8605 34.6169 64.8061 35.0667C64.7519 35.5164 65.0725 35.9251 65.5222 35.9794C66.214 36.0631 66.945 36.1313 67.6042 35.974C68.3271 35.8011 69.0294 35.4397 69.7085 35.0902C70.6798 34.5903 71.5971 34.1182 72.1601 34.4066C72.7222 34.6948 72.8747 35.7146 73.0361 36.7944C73.1491 37.5503 73.2662 38.3319 73.5485 39.0205C73.8341 39.7166 74.4035 40.3302 74.9544 40.9237C75.6482 41.6716 76.3657 42.445 76.3593 43.2204C76.3548 43.7631 75.7649 44.4629 75.1948 45.1396C74.545 45.9107 73.8731 46.7079 73.6099 47.6771C73.4579 48.2369 73.4828 48.8446 73.5651 49.439H68.0565C68.0436 48.7186 67.7337 48.0722 67.3121 47.4621C67.8631 45.9354 68.3524 44.3645 68.767 42.7847C68.8821 42.3465 68.62 41.8981 68.1819 41.783C67.7434 41.6681 67.2953 41.9301 67.1802 42.3683C66.8638 43.5737 66.5024 44.7738 66.1028 45.9518C65.6233 45.3719 65.181 44.7822 65.0268 44.2143C64.8742 43.6529 65.0321 42.8455 65.1992 41.9907C65.4387 40.7659 65.7101 39.3778 65.1063 38.1993C64.5022 37.0204 63.2161 36.43 62.0813 35.9091C61.2902 35.5458 60.5429 35.2027 60.1767 34.7524C59.7307 34.2026 59.5022 33.2961 59.2813 32.4194C58.9737 31.1984 58.6556 29.9359 57.6858 29.225C56.4621 28.329 54.9217 28.5218 53.563 28.6918C52.8127 28.7857 52.1041 28.8745 51.6144 28.7575C51.0326 28.6187 50.3662 28.2759 49.7216 27.9443C48.4001 27.2644 46.9026 26.4938 45.5144 27.2055C44.1968 27.8807 43.9056 29.4169 43.6915 30.8286C43.0332 30.5212 42.4425 30.2149 42.1298 29.8305C41.6839 29.2806 41.4554 28.3741 41.2345 27.4974C40.9269 26.2764 40.6088 25.0139 39.6389 24.303C38.4153 23.407 36.8749 23.5998 35.5162 23.7698C34.7661 23.8637 34.0575 23.9523 33.5676 23.8355C32.9858 23.6967 32.3194 23.354 31.6748 23.0223C30.3534 22.3427 28.8557 21.5722 27.468 22.2835C26.0799 22.9943 25.8306 24.6601 25.6109 26.1299C25.5037 26.8468 25.3927 27.5881 25.1655 28.1417C24.9746 28.6076 24.4887 29.1312 23.9742 29.6856C23.043 30.6893 21.9875 31.8269 22.0001 33.3433C22.0103 34.5457 22.8496 35.5416 23.6613 36.5046C24.2439 37.196 24.8465 37.9108 25.0321 38.5933C25.1841 39.154 25.0262 39.9611 24.8591 40.8154C24.6193 42.0407 24.3475 43.4295 24.9516 44.6075C25.5554 45.786 26.8411 46.3764 27.9756 46.8974C28.767 47.2608 29.5147 47.6042 29.8815 48.0561C30.1653 48.4052 30.3607 48.8997 30.5224 49.4389H23.9165C22.8345 49.4329 21.9418 50.3777 22.0034 51.4567C22.176 54.4809 22.9871 57.3634 24.4141 60.0241C24.6283 60.4234 25.1256 60.5736 25.5247 60.3592C25.9239 60.145 26.074 59.6478 25.8598 59.2486C24.5467 56.8 23.8002 54.1469 23.6412 51.3629C23.6317 51.1962 23.7373 51.0851 23.9165 51.0794H76.0835C76.2644 51.0859 76.3682 51.1957 76.3587 51.363C76.0925 56.0261 74.1227 60.4176 70.8118 63.7288C67.1388 67.4021 62.4581 69.2942 57.343 69.3078H42.6569C36.8877 69.3065 31.5707 66.8088 27.8851 62.2855C27.599 61.9343 27.0823 61.8814 26.731 62.1679C26.3798 62.4542 26.3272 62.9708 26.6134 63.322C29.1833 66.475 32.5564 68.7521 36.3193 69.9594V72.3011C36.3193 75.4433 38.8756 77.9996 42.0177 77.9996H57.9822C61.1243 77.9996 63.6806 75.4433 63.6806 72.3011V69.9628C66.7736 68.9716 69.6082 67.2519 71.9719 64.8888C75.5679 61.2925 77.7075 56.5222 77.9967 51.4567C78.0583 50.3776 77.1597 49.4334 76.0835 49.4389V49.4389ZM41.1756 49.4389C39.1278 46.3407 37.3813 43.049 35.9833 39.6472C35.0232 37.3127 34.2096 34.8826 33.5649 32.4241C33.4499 31.9858 33.0016 31.7238 32.5634 31.8386C32.1251 31.9535 31.8631 32.4019 31.9779 32.8401C32.6411 35.3691 33.4782 37.8692 34.4659 40.2709C35.7688 43.4412 37.3651 46.5187 39.2197 49.4389H32.2267C31.9959 48.5684 31.7127 47.7078 31.1551 47.0217C30.5473 46.273 29.5881 45.8324 28.6603 45.4064C27.7242 44.9765 26.7565 44.5321 26.4115 43.8591C26.0668 43.1867 26.2713 42.1413 26.469 41.1304C26.6649 40.1291 26.8676 39.0937 26.6153 38.1633C26.3344 37.1307 25.6132 36.2749 24.9156 35.4473C24.2913 34.7065 23.6458 33.9404 23.6406 33.3296C23.6334 32.465 24.4179 31.6193 25.1768 30.8015C25.768 30.1643 26.3794 29.5053 26.6832 28.7644C26.9857 28.0272 27.1115 27.1861 27.2332 26.3726C27.4103 25.1887 27.5776 24.0706 28.2159 23.7437C28.8545 23.4164 29.8594 23.9337 30.9241 24.4814C31.6555 24.8576 32.4118 25.2467 33.1866 25.4315C33.9653 25.6175 34.8573 25.5058 35.7198 25.3979C36.8269 25.2594 37.972 25.1161 38.6693 25.6266C39.1622 25.9879 39.4069 26.9592 39.6435 27.8984C39.9079 28.9478 40.1813 30.033 40.8562 30.8649C41.4641 31.6126 42.4227 32.0527 43.3499 32.4783C44.2863 32.9081 45.2543 33.3526 45.5992 34.0256C45.944 34.6985 45.7396 35.7436 45.5421 36.7541C45.3462 37.756 45.1437 38.7918 45.3963 39.7216C45.5084 40.1363 45.6951 40.5214 45.905 40.868C43.697 42.0468 42.1905 44.3738 42.1905 47.0467C42.1905 47.8673 42.3348 48.6765 42.612 49.439H41.1756V49.4389ZM53.9863 49.4389H44.3949C44.0254 48.6992 43.8312 47.8809 43.8312 47.0466C43.8312 44.0914 46.2353 41.6872 49.1905 41.6872C52.1457 41.6872 54.5499 44.0914 54.5499 47.0466C54.55 47.881 54.3556 48.6993 53.9863 49.4389ZM59.7175 49.4389H55.7692C56.0463 48.6763 56.1905 47.8673 56.1905 47.0466C56.1905 44.9602 55.272 43.0855 53.8193 41.8018C54.178 41.727 54.5457 41.6872 54.9217 41.6872C57.8769 41.6872 60.2811 44.0914 60.2811 47.0466C60.2812 47.881 60.087 48.6993 59.7175 49.4389V49.4389ZM61.5004 49.4389C61.7776 48.6763 61.9218 47.8673 61.9218 47.0466C61.9218 43.1867 58.7817 40.0466 54.9219 40.0466C53.9321 40.0466 52.9483 40.2579 52.0519 40.6605C51.1776 40.2673 50.2097 40.0466 49.1906 40.0466C48.5958 40.0466 48.0182 40.1217 47.4664 40.2619C47.2603 39.9612 47.0705 39.6268 46.98 39.2922C46.8274 38.7308 46.9853 37.9234 47.1524 37.0686C47.3919 35.8439 47.6633 34.4557 47.0595 33.2772C46.6653 32.5081 45.9805 31.9902 45.2373 31.5779C45.4149 30.4109 45.5747 29.0179 46.2629 28.6654C46.9015 28.3383 47.9065 28.8555 48.9711 29.4031C49.7025 29.7794 50.4588 30.1684 51.2336 30.3533C52.0124 30.5392 52.9042 30.4275 53.7669 30.3197C54.874 30.1811 56.019 30.0379 56.7164 30.5484C57.2092 30.9098 57.4539 31.8809 57.6906 32.8201C57.9549 33.8695 58.2284 34.9548 58.9032 35.7867C59.5111 36.5344 60.4698 36.9745 61.3969 37.4C62.3333 37.8299 63.3014 38.2744 63.6462 38.9474C63.991 39.6202 63.7867 40.6653 63.5891 41.6758C63.3932 42.6777 63.1907 43.7136 63.4436 44.6441C63.724 45.6774 64.4454 46.5335 65.1431 47.3613C65.7542 48.0864 66.384 48.8354 66.4145 49.4389H61.5004ZM62.04 72.3011C62.04 74.5386 60.2196 76.3589 57.9822 76.3589H42.0178C39.7804 76.3589 37.96 74.5386 37.96 72.3011V70.4117C39.4829 70.7648 41.0567 70.9484 42.6569 70.9484H57.343C58.9442 70.9484 60.5173 70.7665 62.0398 70.4147V72.3011H62.04Z" fill="#234cad"/>
</svg>

<svg width="60" height="60" viewBox="0 0 100 100" fill="none" xmlns="http://www.w3.org/2000/svg">
  <rect x="1" y="1" width="98" height="98" rx="14" stroke="#234cad" stroke-width="2"/>
  <path d="M76.08 49.44h-.86c-.08-.5-.12-.98-.03-1.33.17-.62.72-1.28 1.26-1.91.76-.9 1.54-1.83 1.55-2.97.01-1.42-.97-2.49-1.84-3.42-.47-.51-.92-1-1.1-1.41-.2-.5-.3-1.19-.4-1.85-.2-1.37-.44-2.93-1.75-3.6-1.31-.68-2.72.05-3.95.68-.6.3-1.2.62-1.74.75-.4.1-.98.03-1.5-.03a.82.82 0 00-.2 1.63c.7.08 1.42.15 2.08 0a9.7 9.7 0 002.1-.89c.98-.5 1.9-.97 2.46-.68.56.28.71 1.3.88 2.38.1.76.23 1.54.5 2.23.3.7.86 1.31 1.41 1.9.7.75 1.42 1.52 1.4 2.3 0 .54-.59 1.24-1.16 1.92-.64.77-1.32 1.57-1.58 2.54a4.45 4.45 0 00-.04 1.76h-5.51a3.6 3.6 0 00-.75-1.98 54.8 54.8 0 001.46-4.68.82.82 0 10-1.59-.41c-.32 1.2-.68 2.4-1.08 3.58a5.18 5.18 0 01-1.07-1.74c-.16-.56 0-1.36.17-2.22.24-1.22.51-2.61-.1-3.8-.6-1.17-1.88-1.76-3.02-2.28-.79-.36-1.54-.7-1.9-1.16a6.4 6.4 0 01-.9-2.33c-.3-1.22-.62-2.48-1.6-3.2-1.22-.9-2.76-.7-4.12-.53-.75.1-1.46.18-1.95.07a9.3 9.3 0 01-1.89-.82c-1.32-.68-2.82-1.45-4.2-.73-1.32.67-1.61 2.2-1.83 3.62a4.56 4.56 0 01-1.56-1 6.4 6.4 0 01-.9-2.33c-.3-1.22-.62-2.49-1.6-3.2-1.21-.9-2.76-.7-4.11-.53-.75.1-1.46.18-1.95.07a9.29 9.29 0 01-1.9-.82c-1.32-.68-2.81-1.45-4.2-.74-1.39.71-1.64 2.38-1.86 3.85-.1.72-.22 1.46-.44 2.01-.2.47-.68 1-1.2 1.55-.93 1-1.98 2.14-1.97 3.65.01 1.2.85 2.2 1.66 3.16.58.7 1.19 1.41 1.37 2.1.15.55 0 1.36-.17 2.22-.24 1.22-.51 2.6.1 3.79.6 1.18 1.88 1.77 3.02 2.29.79.36 1.53.7 1.9 1.16.29.35.48.84.64 1.38h-6.6c-1.09 0-1.98.94-1.92 2.02.18 3.02.99 5.9 2.41 8.56a.82.82 0 101.45-.77 18.84 18.84 0 01-2.22-7.89c0-.16.1-.27.28-.28h52.16c.18 0 .29.12.28.28a19 19 0 01-5.55 12.37 18.75 18.75 0 01-13.47 5.58H42.66c-5.77 0-11.09-2.5-14.77-7.02a.82.82 0 10-1.28 1.03 20.64 20.64 0 009.7 6.64v2.34a5.7 5.7 0 005.7 5.7h15.97a5.7 5.7 0 005.7-5.7v-2.34A20.64 20.64 0 0078 51.46a1.93 1.93 0 00-1.92-2.02zm-34.9 0a57.3 57.3 0 01-7.62-17.02.82.82 0 00-1.58.42 58.86 58.86 0 007.24 16.6h-7a6.3 6.3 0 00-1.06-2.42 6.7 6.7 0 00-2.5-1.61c-.94-.43-1.9-.88-2.25-1.55-.34-.67-.14-1.72.06-2.73.2-1 .4-2.04.15-2.97a7.5 7.5 0 00-1.7-2.71c-.63-.74-1.27-1.51-1.28-2.12 0-.86.78-1.71 1.54-2.53.59-.64 1.2-1.3 1.5-2.04.3-.73.43-1.57.55-2.39.18-1.18.35-2.3.99-2.63.63-.32 1.64.2 2.7.74.74.38 1.5.77 2.27.95.78.19 1.67.08 2.53-.03 1.1-.14 2.25-.28 2.95.23.5.36.74 1.33.97 2.27.27 1.05.54 2.13 1.22 2.96a6.7 6.7 0 002.49 1.62c.94.43 1.9.87 2.25 1.55.34.67.14 1.71-.06 2.72-.2 1-.4 2.04-.14 2.97.1.42.3.8.5 1.15a7 7 0 00-3.29 8.57h-1.43zm12.8 0H44.4a5.35 5.35 0 119.6 0zm5.74 0h-3.95a7 7 0 00-1.95-7.64 5.37 5.37 0 015.9 7.64zm1.78 0a7 7 0 00-9.45-8.78 6.96 6.96 0 00-4.58-.4c-.21-.3-.4-.63-.49-.97-.15-.56 0-1.37.17-2.22.24-1.23.51-2.61-.09-3.8a4.24 4.24 0 00-1.82-1.7c.17-1.16.33-2.55 1.02-2.9.64-.33 1.65.19 2.71.73.73.38 1.49.77 2.26.95.78.19 1.67.08 2.54-.03 1.1-.14 2.25-.28 2.95.23.49.36.73 1.33.97 2.27a7.5 7.5 0 001.21 2.97 6.7 6.7 0 002.5 1.61c.93.43 1.9.87 2.25 1.55.34.67.14 1.72-.06 2.73-.2 1-.4 2.03-.15 2.96.28 1.04 1 1.9 1.7 2.72.61.73 1.24 1.48 1.27 2.08H61.5zm.54 22.86a4.06 4.06 0 01-4.06 4.06H42.02a4.06 4.06 0 01-4.06-4.06v-1.89c1.52.35 3.1.54 4.7.54h14.68c1.6 0 3.18-.18 4.7-.54v1.9z" fill="#234cad"/>
</svg>
